X:1
T:Ships are Sailing
L:1/8
M:2/2
I:linebreak $
K:D
V:1 treble nm="Voice" snm="Voice"
V:1
 B"Em"eed BcdB |"D" A2 FD ADFD |"Em" EDEF GFGA | Beef"Bm" gfed |$ B"Em"eed BdcB |"D" AD FED ADFD | %6
"Em" E^DEF GFGA | B"Bm"eed"Em" e4 ::$"Em" gfga bgeg |"D" fefg afdf |"Em" gfga bgeg | %11
 afdf"Em" e2 ef |$"Em" gfga bgeg |"D" fefg afdf |"G" g2 bg f2 af |"Em" edef"Bm" gfed :| %16
